X:343
T:The wild Irishman
R:Reel
O:Ireland
B:Irish Traditional Music Session Tunes 2 n6
S:Tommy Peoples, from a 70's demo tape
Z:Transcription:Bernie Stocks, slight arr., chords:Mike Long
M:C|
L:1/8
K:D
"D"[D2d2]fd gdfd|"D"dfed "A"cdec|"D"~d2fd gdfd|"G"fgfe "A"dcBc|\
"D"~d2fd gdfd|
"D"dfed "A"cded|"D"(f{a}f{e}f)d "G"gfge| "A"(c{d}c{B}c)A "D"dcdf|]\
"G"edcB "A"A2cA|"A"eA~A2 eAfA|
"G"edcB "A"A2~A2|"G"fgfe "D"dcdf|\
"G"edcB "A"ABcd|"A"eA~A2 eAfA|"G"edcB "A"A2~A2|"G"fgfe "D"~d2 dA|]
